X: 18545
T: I Have No Money
R: reel
M: 4/4
K: Dmajor
|FAdB A2{B}AG|FAdA FEEG|FAdB A2Af|1 afeg fddA:|2 afeg fddf||
afef d2df|afeg fBBf|afef dedB|A2{B}AG FDDf|
afef d2df|afeg fBBf|a2af edBd|A2{B}AG FAdA||

